X:4
T:Ashplant (reel), The  
B:CRE1.116 (Maide Fuinnseoige)
F:file ID: cre.1/004ashpl
S:Sonny Brogan
M:C
L:1/8
Q:180
R:reel
K:Em
BEE2 BAGA|BEE2 G3A|BEE2 BGBd|(3gfe dB (3ABA GA|
BEE2 BAGA|BEED G3A|B2BA (3B^cd ef|(3gfe dB A2||
GA|B2eB fBeB|B2ed BAGA|B2eB f2fd|efeB A2GA|
B2eB fBeB|B2ed BAGA|(3B^cd ef gbaf|(3gfe dB A2||

%%%

